symbols/web/arrow_left/materialsymbolsrounded/arrow_left_20px.svg

<svg xmlns="http://www.w3.org/2000/svg" height="20" width="20"><path d="m10.167 12.688-2.042-2.042q-.125-.125-.198-.292-.073-.166-.073-.333t.073-.333q.073-.167.198-.292l2.042-2.042q.416-.416.958-.198.542.219.542.802v4.104q0 .605-.542.823-.542.219-.958-.197Z"/></svg>

<svg xmlns="http://www.w3.org/2000/svg" height="20" width="20"><path d="M10.167 12.688 8.125 10.646Q8 10.521 7.927 10.354Q7.854 10.188 7.854 10.021Q7.854 9.854 7.927 9.688Q8 9.521 8.125 9.396L10.167 7.354Q10.583 6.938 11.125 7.156Q11.667 7.375 11.667 7.958V12.062Q11.667 12.667 11.125 12.885Q10.583 13.104 10.167 12.688Z"/></svg>
